assets/framedown.svg

<svg width='377' height='35' viewBox='0 0 377 35' fill='none' xmlns='http://www.w3.org/2000/svg'><path d='M376 26.25L365.414 26.25C364.95 26.25 364.505 26.4344 364.177 26.7626L356.763 34.1768C356.716 34.2237 356.652 34.25 356.586 34.25L20.4142 34.25C20.3479 34.25 20.2843 34.2236 20.2374 34.1767L12.8232 26.7625C12.495 26.4343 12.0499 26.25 11.5858 26.25L1 26.25C0.861939 26.25 0.750001 26.138 0.750001 26L0.750002 7.41418C0.750002 7.19144 1.01929 7.07993 1.17676 7.2374L3.17676 9.23741C3.50498 9.56558 3.95004 9.74997 4.41422 9.74997L102.764 9.74998C103.036 9.74998 103.304 9.68673 103.547 9.56522L111.124 5.77637C111.159 5.75901 111.197 5.74998 111.236 5.74998L370.586 5.75C371.05 5.75 371.495 5.56562 371.823 5.23744L375.823 1.23744C375.981 1.07994 376.25 1.19149 376.25 1.41422L376.25 26C376.25 26.1381 376.138 26.25 376 26.25Z' fill='#030A17'/><path d='M376 26.25L365.414 26.25C364.95 26.25 364.505 26.4344 364.177 26.7626L356.763 34.1768C356.716 34.2237 356.652 34.25 356.586 34.25L20.4142 34.25C20.3479 34.25 20.2843 34.2236 20.2374 34.1767L12.8232 26.7625C12.495 26.4343 12.0499 26.25 11.5858 26.25L1 26.25C0.861939 26.25 0.750001 26.138 0.750001 26L0.750002 7.41418C0.750002 7.19144 1.01929 7.07993 1.17676 7.2374L3.17676 9.23741C3.50498 9.56558 3.95004 9.74997 4.41422 9.74997L102.764 9.74998C103.036 9.74998 103.304 9.68673 103.547 9.56522L111.124 5.77637C111.159 5.75901 111.197 5.74998 111.236 5.74998L370.586 5.75C371.05 5.75 371.495 5.56562 371.823 5.23744L375.823 1.23744C375.981 1.07994 376.25 1.19149 376.25 1.41422L376.25 26C376.25 26.1381 376.138 26.25 376 26.25Z' fill='#00E0FF' fill-opacity='0.1'/><path d='M376 26.25L365.414 26.25C364.95 26.25 364.505 26.4344 364.177 26.7626L356.763 34.1768C356.716 34.2237 356.652 34.25 356.586 34.25L20.4142 34.25C20.3479 34.25 20.2843 34.2236 20.2374 34.1767L12.8232 26.7625C12.495 26.4343 12.0499 26.25 11.5858 26.25L1 26.25C0.861939 26.25 0.750001 26.138 0.750001 26L0.750002 7.41418C0.750002 7.19144 1.01929 7.07993 1.17676 7.2374L3.17676 9.23741C3.50498 9.56558 3.95004 9.74997 4.41422 9.74997L102.764 9.74998C103.036 9.74998 103.304 9.68673 103.547 9.56522L111.124 5.77637C111.159 5.75901 111.197 5.74998 111.236 5.74998L370.586 5.75C371.05 5.75 371.495 5.56562 371.823 5.23744L375.823 1.23744C375.981 1.07994 376.25 1.19149 376.25 1.41422L376.25 26C376.25 26.1381 376.138 26.25 376 26.25Z' stroke='#00E0FF' stroke-width='1.5'/></svg>

<svg width="377" height="35" fill="none" xmlns="http://www.w3.org/2000/svg"><path d="M376 26.25h-10.586c-.464 0-.909.184-1.237.513l-7.414 7.414a.251.251 0 0 1-.177.073H20.414a.25.25 0 0 1-.177-.073l-7.414-7.415a1.75 1.75 0 0 0-1.237-.512H1A.25.25 0 0 1 .75 26V7.414a.25.25 0 0 1 .427-.177l2 2a1.75 1.75 0 0 0 1.237.513h98.35c.272 0 .54-.063.783-.185l7.577-3.789a.251.251 0 0 1 .112-.026h259.35c.464 0 .909-.184 1.237-.513l4-4a.25.25 0 0 1 .427.177V26a.25.25 0 0 1-.25.25Z" fill="#030A17"/><path d="M376 26.25h-10.586c-.464 0-.909.184-1.237.513l-7.414 7.414a.251.251 0 0 1-.177.073H20.414a.25.25 0 0 1-.177-.073l-7.414-7.415a1.75 1.75 0 0 0-1.237-.512H1A.25.25 0 0 1 .75 26V7.414a.25.25 0 0 1 .427-.177l2 2a1.75 1.75 0 0 0 1.237.513h98.35c.272 0 .54-.063.783-.185l7.577-3.789a.251.251 0 0 1 .112-.026h259.35c.464 0 .909-.184 1.237-.513l4-4a.25.25 0 0 1 .427.177V26a.25.25 0 0 1-.25.25Z" fill="#00E0FF" fill-opacity=".1"/><path d="M376 26.25h-10.586c-.464 0-.909.184-1.237.513l-7.414 7.414a.251.251 0 0 1-.177.073H20.414a.25.25 0 0 1-.177-.073l-7.414-7.415a1.75 1.75 0 0 0-1.237-.512H1A.25.25 0 0 1 .75 26V7.414a.25.25 0 0 1 .427-.177l2 2a1.75 1.75 0 0 0 1.237.513h98.35c.272 0 .54-.063.783-.185l7.577-3.789a.251.251 0 0 1 .112-.026h259.35c.464 0 .909-.184 1.237-.513l4-4a.25.25 0 0 1 .427.177V26a.25.25 0 0 1-.25.25Z" stroke="#00E0FF" stroke-width="1.5"/></svg>
